X:1
T:Title
%%score { ( 1 4 5 ) | ( 2 3 ) }
L:1/8
M:4/4
K:Bb
V:1 treble nm="Grand Piano"
V:4 treble 
V:5 treble 
V:2 bass 
V:3 bass 
V:1
 z8[Q:1/4=100] | [DB]3 B [DB]2 [Ec]2 | [DB]6 z2 | [B,DF]2 [_A,DF]2 [=A,EF]2 [A,EF]2 | [DF]6 G2 | %5
 [EA]2 [EA]2 [EA]2 z2 | [DB]2 [DB]2 [DB]2 z2 | [=EBc]2 [CEG]2 [CEA]2 [CEB]2 | [CFAc]6 z2 | %9
 [CGc]2 [C=Ec]2 [CFc]2 [CGc]2 | c4 z4 | [DAd]2 [D^Fd]2 [DGd]2 [DAd]2 | B2 z2 z4 | %13
 [EBe][Be] [FBd]2 [Gc]2 cc | ff [Fe]2 [Fd]2 [Fd]2 | z4 z2 G2 |[M:3/4] F6 |[M:1/4] F2 | %18
[M:4/4] [Fd]3 [Fd] [Fd]2 [=E_d]2 | [Fd]6 [Fc]2 | [GB]2 [GB][Gc] [GB]2 [EG]2 | [DF]6 [DF]>[DG] | %22
 [EA]2 [EA]2 A2 GA | [FB]2 [FB]2 [FB]2 cd | [=Ec]2 [Fc]2 [Gc]2 [Ec]2 | c6[K:bass][K:treble] z2 | %26
 d3 [Fd] [Fd]4 | [^Fd]2 [Ac]2 .[Ac]2 z B | [Ge]3 [Ge] [GB]2 [^Fc]2 | [Fd]6 FF | %30
 G2 [FA]2 [FB]2 [Fc]2 |[M:9/8] [Fd]2 [Fe]- [Fe] [Ff]2- [Ff] [Ge]2 |[M:4/4] d d3 c2 c2 | %33
[M:3/4] [DB]6 |] %34
V:2
 z4 z2 F2 | B,,2 z D B,2 F,2 | B,,2 D,F, B,2 D>E | B,,2 =B,,2 C,2 F,2 | %4
 B,,2 D,F, B,2[K:treble] D>B | C,2 [F,,F,]2 C,2[K:treble] Bc | B,,2 [F,,F,]2 B,,2[K:treble] cd | %7
 C,2 B,2 A,2 G,2 | F,2 C,2 F,,2[K:treble] c2 | E,2 C,2 D,2 E,2 | F,2 G,2 A,2 F,2 | %11
 ^F,2 D,2 =E,2 F,2 | G,2 A,2 B,2 _A,2 | z E F,2 z2 G2 | [D,B,]2 [C,A,]2 [B,,B,]2 [=B,,_A,]2 | %15
 C,2- [C,-G,=E]2 [C,CE]2 .[D,B,C]2 |[M:3/4] [F,A,]2 C,2 F,,2 |[M:1/4] F,2 | %18
[M:4/4] [B,,B,]3 [B,,B,] [B,,B,]2 [B,,B,]2 | [B,,B,]6 [D,B,]2 | [E,E]2 [E,E][E,E] [E,E]2 [E,B,]2 | %21
 [B,,B,]6 [B,,B,]>[B,,B,] | [C,F,]2 [C,F,]2 [F,CE]2 [E,CF]2 | %23
 [D,B,]2 [D,B,]2 [D,B,]2 [C,A,][B,,B,] | [C,B,]2 [D,B,]2 [E,B,]2 [C,B,]2 | [A,F]6 z2 | %26
 [B,,B,]3 [B,,B,] [B,,B,]4 | [D,A,]2 [^F,D]2[K:treble] [G,D][G,DG][K:bass] [=F,D]2 | %28
 [E,B,]3 [E,B,] [E,B,]2 [E,B,]2 | [B,,B,]6 [D,B,][D,B,] | [E,B,E]2 [C,C]2 [D,B,]2 [F,A,]2 | %31
[M:9/8] [B,,B,]2 [C,A,]- [C,A,] [D,B,]2- [D,B,] [E,B,]2 |[M:4/4] [F,B,F] [F,B,F]3 [F,A,E]2 [F,E]2 | %33
[M:3/4] [B,,F,]6 |] %34
V:3
 x8 | z2 F,2 z4 | x8 | x8 | x6[K:treble] x2 | x6[K:treble] x2 | x6[K:treble] x2 | x8 | %8
 x6[K:treble] x2 | x8 | x8 | x8 | x8 | G,2 z2 [E,B,]4 | x8 | A,2 z2 z4 |[M:3/4] x6 |[M:1/4] x2 | %18
[M:4/4] x8 | x8 | x8 | x8 | x8 | x8 | x8 | F,2 z2 z2 [C,F,A,]2 | x8 | x4[K:treble] x2[K:bass] x2 | %28
 x8 | x8 | x8 |[M:9/8] x9 |[M:4/4] x8 |[M:3/4] x6 |] %34
V:4
 x8 | x8 | x8 | x8 | x8 | x8 | x8 | x8 | x8 | x8 | [CA]2 [C=EA]2 [CFc]2 c2 | x8 | %12
 [Dd]2- [D-^Fd-]2 [DGd]2 [D=FBd]2 | x8 | F2 z2 z4 | [Fc]2 B2 A2 z =E, |[M:3/4] z2 A,2 A,2 | %17
[M:1/4] x2 |[M:4/4] x8 | x8 | x8 | x8 | x8 | z4 z2 F2 | x8 | z2[K:bass] E,2 D,2[K:treble] F2 | x8 | %27
 z4 z .B3 | x8 | x8 | x8 |[M:9/8] x9 |[M:4/4] x8 |[M:3/4] x6 |] %34
V:5
 x8 | x8 | x8 | x8 | x8 | x8 | x8 | x8 | x8 | x8 | x8 | x8 | x8 | x8 | x8 | x8 |[M:3/4] x6 | %17
[M:1/4] x2 |[M:4/4] x8 | x8 | x8 | x8 | x8 | x8 | x8 | x2[K:bass] x4[K:treble] x2 | x8 | %27
 z4 z2 _A2 | x8 | x8 | x8 |[M:9/8] x9 |[M:4/4] x8 |[M:3/4] x6 |] %34

